X:63
T:Quick March. JJo.063
S:J.Jones MS,1801,N.Shrops.
N:Finish on A part
A:N Shropshire
Z:Neil Brookes 2006
M:6/8
L:1/8
Q:3/8=120
K:C
G|c2cd2d|e2f gec|A2A f2e|dec BAG|!
c2cd2d|e2f gec|Afe dcB|c3c2::!
g2ga2a|g2c’ gec|g2ga2a|gecd3|!
g2ga2a|g2c’c’2b|ac’b ag^f|”D.C.”g3g2:|

